X: 35993
T: Saturday
R: waltz
M: 3/4
K: Dmajor
A2|:d3 A FA|d2 e2 f2|e3 B ef|g3 f ed|c3 A ce|g2 f2 e2|f3 e dB|A2 B2 c2|
d3 A FA|d2 e2 f2|e3 B ef|g3 f ed|c3 A ce|g2 f2 e2|d3 d d2|1 d3 A Bc:|2 d2 c2 =c2||
|:B3 G Bd|e2 d2 B2|A3 F Ad|f4 ed|c3 A ce|g2 f2 e2|f3 e dB|A4 A2|
B3 G Bd|e2 d2 B2|A3 F Ad|f4 ed|c3 A ce|g2 f2 e2|d3 d d2|1 d2 c2 =c2:|2 d4 A2||
|:Ad fA df|Ad fA df|f2 g2 f2|e6|Ac eA ce|Ac eA ce|e2 f2 e2|d4 A2|
Ad fA df|Ad fA df|Be gB eg|Be gB eg|a3 b a2|g2 B2 c2|d3 d d2|1 d4 d2:|2 d6||

